X: 4
T: The Frost Is All Over
R: jig
M: 6/8
L: 1/8
K: Gmaj
d2B | AFD DFA | Add B2A | ABA ~F3 | GFG EFG |AFD DFA | Add B2A | ABA F2E |1 EDD :|2 EDD D2||e | fdd ede | fdd d2e | fdd def | g2e efg |afd B2A | AdF G2B | ABA F2E | EDD D2 :|


Tune 448	Setting 13320

